!!!ONB: MCCC : IJH0447_03 : Extracted Monophonic Melody
!!!COM: Haydn, Joseph
!!!OPR: String Quartet in E-flat major
!!!OMV: 3
!!!SCT: Hob.III:46 ; Op.50 No.3
!!!ODT: 1787///
**kern
*thru
*k[b-e-a-]
*E-:
*clefG
*M3/4
4e-
=1
4e-
4g
4g
=2
4g
4b-
4ee-
=3
4ee-
4dd
4ff
=4
4ff
4r
4bb-
=5
4bb-
4ff
4bb-
=6
4bb-
4ee
4bb-
=7
4bb-
4aa
4ccc
=8
2ff
4aa-
=9
4aa-
4gg
4bb-
=10
4cc
4aa-
4ff
=11
4dd
4b-
4ee-
=12
4ee-
4r
4b-
=13
4b-
4cc-
4cc-
=14
2cc-
4bb-
=15
4bb-
4aa-
4aa-
=16
2aa-
4b-
=17
4b-
4cc-
4cc-
=18
2cc-
4aa-
=19
4aa-
4gg-
4gg-
=20
2gg-
4dd-
=21
4dd-
4b-
4b-
=22
4b-
4a-
4a-
=23
4cc-
4a-
4f
=24
4f
4g-
4ddd-
=25
4ddd-
4bb-
4bb-
=26
4bb-
4aa-
4aa-
=27
4ccc-
4aa-
4ff
=28
4aa-
4gg-
4bb-
=29
4bb-
4aa-
4aa-
=30
2aa-
4aa-
=31
4aa-
4gg-
4gg-
=32
2gg-
4gg-
=33
4gg-
4ff
4ff
=34
2ff
4aa
=35
4aa
4bb-
4bb-
=36
4bb-
4r
4e-
=37
4e-
4g
4g
=38
4g
4b-
4ee-
=39
4ee-
4dd
4ff
=40
4ff
4r
4bb-
=41
4bb-
4ff
4bb-
=42
4bb-
4ee
4bb-
=43
4bb-
4aa
4ccc
=44
2ff
4aa-
=45
4aa-
4gg
4bb-
=46
4cc
4aa-
4ff
=47
4dd
4b-
4dd
=48
2.ee-[
=49
2ee-]
4ee-
=50
2.ff[
=51
2ff]
4b-
=52
4b-
4d
4b-
=53
4b-
4e-
4r
=54
2.aa-
=55
2.gg
=56
4ff
4ee-
4dd
=57
4ee-
4r
4b-
=58
4b-
4ee-
4ee-
=59
2ee-
4ee-
=60
4dd
4ff
4ff
=61
8ff
8gg
8aa-
8gg
8ff
8ee-
=62
8dd
8ee-
8ff
8ee-
8dd
8cc
=63
4b-
4cc
4dd
=64
8ee-
8b-
8g
8b-
8a-
8f
=65
4e-
4r
4cc
=66
8cc
8b
8dd
8b
8cc
8ee-
=67
8ee-
8dd
8ff
8dd
8ee-
8gg
=68
8b-
8a
8cc
8a
8b-
8dd
=69
8dd
8cc
8ee-
8cc
8dd
8ee-
=70
8ff
8dd
8gg
8ff
8gg
8ff
=71
8ddd
8ccc
8bb-
8aa
8gg
8ff
=72
8ee-
8dd
8cc
8b-
8a
8cc
=73
4b-
2r
=74
2.r
=75
2.r
=76
2.r
=77
2r
4b-
=78
4b-
4ee-
4ee-
=79
2ee-
4ee-
=80
4dd
4ff
4ff
=81
8ff
8gg
8aa-
8gg
8ff
8ee-
=82
8dd
8ee-
8ff
8ee-
8dd
8cc
=83
8b-
8a-
8g
8f
8e-
8d
=84
8e-
8b-
8g
8b-
8a-
8f
=85
4e-
2r
==
*-
